img/music-theme.svg

<svg xmlns="http://www.w3.org/2000/svg" width="170" height="170"><path fill-rule="evenodd" fill="#F5EEE3" d="M163.879 116.586c-17.446 43.563-66.903 64.738-110.466 47.292C9.85 146.437-11.328 96.977 6.121 53.409c17.443-43.563 66.9-64.732 110.463-47.292 43.564 17.446 64.741 66.901 47.295 110.469zM112.635 15.981C74.577.734 31.219 19.306 15.977 57.361c-15.236 38.061 3.327 81.416 41.385 96.658 38.056 15.237 81.416-3.324 96.658-41.385 15.237-38.055-3.324-81.416-41.385-96.653zM110.25 143.46c-.062.032-.106.089-.171.12-1.349.575-2.907-.042-3.486-1.395-.578-1.349.047-2.91 1.39-3.486 13.743-5.886 25.246-17.01 31.241-31.987.545-1.359 2.093-2.023 3.451-1.478 1.362.544 2.026 2.09 1.481 3.453-6.503 16.238-18.988 28.332-33.906 34.773zm-4.209-9.745c-.059.032-.088.079-.143.104-1.348.576-2.909-.046-3.484-1.395-.581-1.348.046-2.909 1.395-3.49h-.006c11.249-4.813 20.657-13.914 25.557-26.169.55-1.364 2.091-2.022 3.454-1.478 1.359.544 2.025 2.09 1.478 3.454-5.419 13.536-15.822 23.607-28.251 28.974zm18.393-32.926c-4.336 10.829-12.657 18.888-22.604 23.188-.041.015-.065.056-.114.077-1.346.575-2.907-.047-3.485-1.401-.578-1.343.05-2.903 1.393-3.479 8.746-3.744 16.061-10.823 19.88-20.36l.005.004c.543-1.364 2.09-2.027 3.452-1.478 1.359.545 2.022 2.091 1.478 3.449h-.005zm-51.281 13.785c-16.33-6.54-24.275-25.085-17.733-41.422 6.539-16.331 25.088-24.276 41.424-17.73 16.336 6.539 24.276 25.084 17.736 41.421-6.542 16.336-25.088 24.276-41.427 17.731zm19.742-49.299c-10.876-4.351-23.263.954-27.617 11.824-4.35 10.87.952 23.265 11.828 27.616 10.869 4.362 23.259-.949 27.616-11.819 4.35-10.87-.949-23.265-11.827-27.621zM81.047 94.856c-5.441-2.178-8.088-8.36-5.907-13.805 2.181-5.445 8.365-8.096 13.81-5.912 5.446 2.183 8.088 8.365 5.907 13.81-2.178 5.441-8.362 8.091-13.81 5.907zm5.928-14.79c-2.718-1.084-5.816.238-6.908 2.956-1.084 2.722.238 5.813 2.956 6.907 2.717 1.084 5.814-.238 6.905-2.956 1.087-2.722-.238-5.818-2.953-6.907zm-16.601-29.24C61.63 54.565 54.31 61.65 50.496 71.177h-.006c-.544 1.358-2.089 2.022-3.453 1.478-1.362-.545-2.023-2.085-1.479-3.449h.006c4.335-10.824 12.656-18.888 22.604-23.187.038-.016.064-.057.113-.072 1.349-.581 2.907.036 3.488 1.389.576 1.354-.049 2.91-1.395 3.49zm-4.182-9.77v.01c-11.241 4.808-20.654 13.915-25.555 26.169-.55 1.364-2.093 2.018-3.454 1.478-1.359-.549-2.027-2.09-1.478-3.453 5.42-13.531 15.823-23.613 28.254-28.986.057-.02.088-.073.14-.093 1.348-.581 2.909.047 3.488 1.389.578 1.354-.05 2.91-1.395 3.486zm-4.178-9.76c-13.746 5.886-25.243 17.01-31.239 31.987-.547 1.364-2.092 2.023-3.451 1.479-1.364-.545-2.027-2.091-1.478-3.46 6.503-16.237 18.986-28.326 33.907-34.772.057-.031.104-.089.166-.114 1.348-.576 2.907.046 3.488 1.395.578 1.348-.05 2.904-1.393 3.485z"/></svg>

﻿<svg 
 xmlns="http://www.w3.org/2000/svg"
 xmlns:xlink="http://www.w3.org/1999/xlink"
 width="170px" height="170px">
<path fill-rule="evenodd"  fill="rgb(245, 238, 227)"
 d="M163.879,116.586 C146.433,160.149 96.976,181.324 53.413,163.878 C9.850,146.437 -11.328,96.977 6.121,53.409 C23.564,9.846 73.021,-11.323 116.584,6.117 C160.148,23.563 181.325,73.018 163.879,116.586 ZM112.635,15.981 C74.577,0.734 31.219,19.306 15.977,57.361 C0.741,95.422 19.304,138.777 57.362,154.019 C95.418,169.256 138.778,150.695 154.020,112.634 C169.257,74.579 150.696,31.218 112.635,15.981 ZM110.250,143.460 C110.188,143.492 110.144,143.549 110.079,143.580 C108.730,144.155 107.172,143.538 106.593,142.185 C106.015,140.836 106.640,139.275 107.983,138.699 C121.726,132.813 133.229,121.689 139.224,106.712 C139.769,105.353 141.317,104.689 142.675,105.234 C144.037,105.778 144.701,107.324 144.156,108.687 C137.653,124.925 125.168,137.019 110.250,143.460 ZM106.041,133.715 C105.982,133.747 105.953,133.794 105.898,133.819 C104.550,134.395 102.989,133.773 102.414,132.424 C101.833,131.076 102.460,129.515 103.809,128.934 L103.803,128.934 C115.052,124.121 124.460,115.020 129.360,102.765 C129.910,101.401 131.451,100.743 132.814,101.287 C134.173,101.831 134.839,103.377 134.292,104.741 C128.873,118.277 118.470,128.348 106.041,133.715 ZM124.434,100.789 C120.098,111.618 111.777,119.677 101.830,123.977 C101.789,123.992 101.765,124.033 101.716,124.054 C100.370,124.629 98.809,124.007 98.231,122.653 C97.653,121.310 98.281,119.750 99.624,119.174 C108.370,115.430 115.685,108.351 119.504,98.814 L119.509,98.818 C120.052,97.454 121.599,96.791 122.961,97.340 C124.320,97.885 124.983,99.431 124.439,100.789 L124.434,100.789 ZM73.153,114.574 C56.823,108.034 48.878,89.489 55.420,73.152 C61.959,56.821 80.508,48.876 96.844,55.422 C113.180,61.961 121.120,80.506 114.580,96.843 C108.038,113.179 89.492,121.119 73.153,114.574 ZM92.895,65.275 C82.019,60.924 69.632,66.229 65.278,77.099 C60.928,87.969 66.230,100.364 77.106,104.715 C87.975,109.077 100.365,103.766 104.722,92.896 C109.072,82.026 103.773,69.631 92.895,65.275 ZM81.047,94.856 C75.606,92.678 72.959,86.496 75.140,81.051 C77.321,75.606 83.505,72.955 88.950,75.139 C94.396,77.322 97.038,83.504 94.857,88.949 C92.679,94.390 86.495,97.040 81.047,94.856 ZM86.975,80.066 C84.257,78.982 81.159,80.304 80.067,83.022 C78.983,85.744 80.305,88.835 83.023,89.929 C85.740,91.013 88.837,89.691 89.928,86.973 C91.015,84.251 89.690,81.155 86.975,80.066 ZM70.374,50.826 C61.630,54.565 54.310,61.650 50.496,71.177 L50.490,71.177 C49.946,72.535 48.401,73.199 47.037,72.655 C45.675,72.110 45.014,70.570 45.558,69.206 L45.564,69.206 C49.899,58.382 58.220,50.318 68.168,46.019 C68.206,46.003 68.232,45.962 68.281,45.947 C69.630,45.366 71.188,45.983 71.769,47.336 C72.345,48.690 71.720,50.246 70.374,50.826 ZM66.192,41.056 L66.192,41.066 C54.951,45.874 45.538,54.981 40.637,67.235 C40.087,68.599 38.544,69.253 37.183,68.713 C35.824,68.164 35.156,66.623 35.705,65.260 C41.125,51.729 51.528,41.647 63.959,36.274 C64.016,36.254 64.047,36.201 64.099,36.181 C65.447,35.600 67.008,36.228 67.587,37.570 C68.165,38.924 67.537,40.480 66.192,41.056 ZM62.014,31.296 C48.268,37.182 36.771,48.306 30.775,63.283 C30.228,64.647 28.683,65.306 27.324,64.762 C25.960,64.217 25.297,62.671 25.846,61.302 C32.349,45.065 44.832,32.976 59.753,26.530 C59.810,26.499 59.857,26.441 59.919,26.416 C61.267,25.840 62.826,26.462 63.407,27.811 C63.985,29.159 63.357,30.715 62.014,31.296 Z"/>
</svg>
